X: 02095
T: P & A JIG
C: Bob McQuillen Mar'76
B: Bob's Note Book 1&2 #95
R: jig
Z: 2019 John Chambers <jc:trillian.mit.edu>
M: 6/8
L: 1/8
K: D
de \
| fdf ede | fdB Ade | fdf eda | afd e2d/e/ |\
| fdf ede | fdB ABd | ede ede | fdd d :|
|: fg \
| afa afd | ede fdd | afa afd | dcd e2f/g/ |\
| afa afd | ede fdd | gfe fed | BAA A :|
%%begintext align
%% For Pete + April
%%endtext

%%sep 1 1 500

%%sep 1 1 500

